!!!OTL: 98d. Die Judentochter.
!!!ODT:  1880
!!!ARE: Europa, Mitteleuropa, Deutschland, Kreis Limburg; Kreis Wetzlar
!!!SCT: E0098F
!!!TXL: @@DE
!!!YEM: Copyright 1995, estate of Helmut Schaffrath.
**kern	**text
*ICvox	*
*M6/8	*
*k[f#]	*
*G:	*
!LO:TX:a:t=Etwas langſam.	!
!LO:TX:a:t=Aus dem Kreiſe Limburg u. Wetʒlar. 1880.	!
{8d	Es
=1	=1
4b	war
8a	eine
4g	rei-
8e	-che
=2	=2
8e	Jü-
8d	-din,
8r	.
4r}	.
{8d	ein
=3	=3
4g	wun-
8g	-der-
4b/	-ſchö-
8g	-nes
=4	=4
4.a	Weib,
4r}	.
{8d	die
=5	=5
4b	hatt'
8b	eine
4dd	einʒ-
8dd	-ge
=6	=6
4.cc	Toch-
4e}	-ter,
{8e	ʒum
=7	=7
4d	Tanʒ
8g	war
4b/	ſie
8a	be-
=8	=8
4.g	-reit.
4r}	.
==	==
!!!AGN: erzaehlendes Volks - Lied, Sage, Liebe, Leid, Ballade ?
!!!ONB: ESAC (Essen Associative Code) Database: ERK1
!!!AMT: compound duple
!!!AIN: vox
!!!EED: Helmut Schaffrath
!!!EEV: 1.0
!!!GTL: Liebesgeschichten mit tragischem Schluss
!!!URL-scan: https://rosdok.uni-rostock.de/mcrviewer/recordIdentifier/rosdok_ppn745146120/iview2/phys_0417.iview2?x=-422.27491384562836&y=687.0685969989281&scale=0.554360769283424&rotation=0&layout=singlePageLayout
!!!ENC: Anna Maria Matuszewska
!!!EEV: 2024/11/29
*-	*-
